!!!SOCIAL_FUNCTION:	songs of the while earth reservation
!!!PDT:	1913
!!!OTL: No_169_If_I_Were_a_Son-in-law.krn
!!!REG: Great_Lakes
!!!LANG: Non-Tone
!!!LING_GROUP: Algonquin
**kern	**kern
*staff2	*staff1
*clefF4	*clefF4
*k[b-e-a-]	*k[b-e-a-]
*M3/4	*M3/4
4r	16E-\LK
.	8.E-\J
=1	=1
12GG^/	4B-\
12r	.
12GG/	.
12GG^/	8B-\L
12r	.
.	8B-\J
12GG/	.
12GG^/	4B-\
12r	.
12GG/	.
=2||	=2||
*M2/4	*M2/4
2r	[2B-\
=3	=3
2r	(4B-\]
.	4G\)
=4	=4
2r	16A-\LK
.	[8.A-\J
.	4A-\]
=5	=5
2r	4B-\
.	4G\
=6	=6
2r	2G\
=7	=7
2r	(16G\LK
.	(8.E-\J)
.	4E-\)
=8	=8
2r	8G\L
.	[8G\J
.	4G\]
=9	=9
2r	16A-\LK
.	8.G\J
.	4G\
=10	=10
2r	[2G\
=11	=11
2r	4G\]
.	8E-\L
.	8E-\J
=12	=12
2r	4.E-\
.	8E-\
=13	=13
2r	4G\
.	4E-\
=14	=14
2r	2E-\
=15	=15
2r	4.E-\
.	8BB-/
=16	=16
2r	2BB-/
=17	=17
2r	4E-\
.	4E-\
=18	=18
2r	[2E-\
=19	=19
2r	2E-\]
==	==
*-	*-
